X:1
T:Title
%%score { ( 1 3 ) | ( 2 4 ) }
L:1/8
M:6/8
K:Ab
V:1 treble nm="Grand Piano"
V:3 treble 
V:2 bass 
V:4 bass 
V:1
 z3 z2[Q:1/4=90] [CE] | [CE][A,C][B,D] [CE][Ec]>[Ec] | B2 A FGA | EC[B,D] [CE]2 [EA] | %4
[M:5/8] [EB]-[EB]- [EB]3 |[M:1/8] [DE] |[M:3/4] [CE][A,C] [B,D][CE] [Ec]>[Ec] | B2 AF [EG][FA] | %8
 EA c B2 B | [CA]6 | [Ec]3 [Ec]2 [Fd] | [Ec]3 [CA]3 | [CE][CF] [CG][EA] [EB][Ec] | [De]3 [DG]3 | %14
 d3 .d3 | [Gd]3 G3 | EF GA [GB]>[F_c] | [Ec]6 | [Ec]3 [Ec]2 [Fd] | [Ec]3 [CA]3 | %20
 [CE][CF] [CG][EA] [EB][Fc] | [Ee]3 [_Ge]3 | [Fd]3 [DF]2 [Fd] | [Ec]3 [CE]3 | [Ec][Fd] cB FG | %25
[M:5/8] [CA]-[CA]- [CA]3 |] %26
V:2
 z3 z2 [A,,A,] | [A,,A,][A,,E,][A,,E,] [A,,A,][A,,A,]>[A,,A,] | %2
 [D,F,D]2 [D,F,D] [D,A,D][D,A,E][F,A,D] | [A,C][A,,E,A,][A,,E,] [A,,A,]2 [C,A,] | %4
[M:5/8] [E,G,]-[E,G,]- [E,G,]3 |[M:1/8] [E,G,] | %6
[M:3/4] [A,,A,][A,,E,] [A,,E,][A,,A,] [A,,A,]>[A,,A,] | [D,F,D]2 [D,F,D][D,A,D] [D,A,][D,A,] | %8
 [E,A,C][E,A,C] [E,A,E] [E,G,D]2 [E,G,D] | [A,,A,]6 | [A,,A,]3 [A,,A,]2 [A,,A,] | %11
 [A,,A,]3 [A,,E,]3 | [A,,A,][A,,A,] [A,,A,][C,A,] [C,A,][C,A,] | [B,,G,]3 [E,B,]3 | %14
 B,A, G,B, z [E,G,] | [E,B,]3 [E,B,D]3 | [E,G,D][E,A,D] [E,B,D][E,CE] [E,D]>[E,G,] | %17
 A,F, E,D, C,B,, | [A,,A,]3 [A,,A,]2 [A,,A,] | [A,,A,]3 [A,,E,]3 | %20
 [A,,A,][A,,A,] [A,,A,][C,A,] [C,A,][C,A,] | [B,,G,]3 [C,A,]3 | [D,A,]3 [D,A,]2 [D,A,] | %23
 [A,,A,]3 [A,,A,]3 | [E,A,][E,G,] [E,A,E][E,G,D] [E,A,D][E,B,D] | %25
[M:5/8] [A,,A,]-[A,,A,]- [A,,A,]3 |] %26
V:3
 x6 | x6 | x6 | x6 |[M:5/8] x5 |[M:1/8] x |[M:3/4] x6 | x6 | x6 | x6 | x6 | x6 | x6 | x6 | %14
 GF EG [A,F][Ee] | x6 | x6 | x6 | x6 | x6 | x6 | x6 | x6 | x6 | x6 |[M:5/8] x5 |] %26
V:4
 x6 | x6 | x6 | x6 |[M:5/8] x5 |[M:1/8] x |[M:3/4] x6 | x6 | x6 | x6 | x6 | x6 | x6 | x6 | %14
 E,3 .E,3 | x6 | x6 | x6 | x6 | x6 | x6 | x6 | x6 | x6 | x6 |[M:5/8] x5 |] %26

